icon-themes/sifr_svg/cmd/sc_dbtablerename.svg

<svg viewBox="0 0 16 16" xmlns="http://www.w3.org/2000/svg"><path d="m0 0v15h2v-2-2-1-2-1-1-1h3v1h1v-1h3v1h1v-1h3v1h2v-6zm2 2h3v2h-3zm4 0h3v2h-3zm4 0h3v2h-3zm-6 5c-.554 0-1 .446-1 1v7c0 .554.446 1 1 1h11c.554 0 1-.446 1-1v-7c0-.554-.446-1-1-1zm6 1h1v2h2c1.10457 0 2 1.119288 2 2.5s-.89543 2.5-2 2.5h-2-1zm-5 2h3c.552285 0 1 .447715 1 1v4h-.5-3c-.828427 0-1.5-.671573-1.5-1.5s.671573-1.5 1.5-1.5h2.5v-1h-3zm6 1v3h2c.552285 0 1-.671573 1-1.5s-.447715-1.5-1-1.5zm-5.5 2c-.276142 0-.5.223858-.5.5s.223858.5.5.5h2.5v-1z" fill="#555753"/></svg>

<svg xmlns="http://www.w3.org/2000/svg" viewBox="0 0 16 16">
  <path
     style="fill:#555753"
     d="M 0 0 L 0 15 L 2 15 L 2 13 L 2 11 L 2 10 L 2 8 L 2 7 L 2 6 L 2 5 L 5 5 L 5 6 L 6 6 L 6 5 L 9 5 L 9 6 L 10 6 L 10 5 L 13 5 L 13 6 L 15 6 L 15 0 L 0 0 z M 2 2 L 5 2 L 5 4 L 2 4 L 2 2 z M 6 2 L 9 2 L 9 4 L 6 4 L 6 2 z M 10 2 L 13 2 L 13 4 L 10 4 L 10 2 z M 4 7 C 3.446 7 3 7.446 3 8 L 3 15 C 3 15.554 3.446 16 4 16 L 15 16 C 15.554 16 16 15.554 16 15 L 16 8 C 16 7.446 15.554 7 15 7 L 4 7 z M 10 8 L 11 8 L 11 10 L 13 10 C 14.10457 10 15 11.119288 15 12.5 C 15 13.880712 14.10457 15 13 15 L 11 15 L 10 15 L 10 8 z M 5 10 L 8 10 C 8.552285 10 9 10.447715 9 11 L 9 15 L 8.5 15 L 5.5 15 C 4.671573 15 4 14.328427 4 13.5 C 4 12.671573 4.671573 12 5.5 12 L 8 12 L 8 11 L 5 11 L 5 10 z M 11 11 L 11 14 L 13 14 C 13.552285 14 14 13.328427 14 12.5 C 14 11.671573 13.552285 11 13 11 L 11 11 z M 5.5 13 C 5.223858 13 5 13.223858 5 13.5 C 5 13.776142 5.223858 14 5.5 14 L 8 14 L 8 13 L 5.5 13 z "
     />
</svg>
